X:121
T:The Early Edition
M:C|
L:1/8
C: Paul Gitlitz 2005
R:Reel
B:Anna's Smile
N:Written in the Green Room before playing on the Radio show of the same name. 
K:G
"G"G,>B,DG "F"=F3D|"G"G,>B,DG "F"=FC3|"G"G,>B,DG "F"=FGAc|"G"BG2D G3D|!
"G"G,>B,DG "F"=F3D|"G"G,>B,DG "F"({=FG}F3)C|"G"G,>B,DG "F"=FGA<c|1"G"BG2D G3G,:|2"G"BG2D G3A|! 
|:"G"BGAG BGAG|"C"Ac2Ac3e|"F"=fded fded|"G"=fg2f g3A|!
"G"BGAG BGAG|"C"Ac2Ac3e|"F"=fdeg fedc|1"F"A=F2A"G"G3A:|2"F"A=F3"G"G4|]
